icon/pk/three.svg

<svg viewBox="0 0 48 48" fill="none" xmlns="http://www.w3.org/2000/svg" height="1em" width="1em">
  <path d="M11 40L6.79224 30.8832C5.7604 28.6475 6.5098 25.9935 8.55853 24.6276L10.4628 23.3581C10.7898 23.1401 11.2142 23.1339 11.5475 23.3422L12 23.625L10.1291 9.94424C10.0464 9.33927 10.2055 8.72606 10.5718 8.23757C11.0844 7.55408 12.0541 7.41556 12.7376 7.92818L12.8707 8.02802C13.2808 8.33563 13.5896 8.75888 13.7573 9.24336L17.869 21.1217C17.9474 21.3481 18.1607 21.5 18.4003 21.5C18.7251 21.5 18.9823 21.2257 18.9614 20.9016L18.0785 7.21729C18.0286 6.44352 18.3143 5.68573 18.8625 5.13746C19.5101 4.4899 20.541 4.43281 21.2561 5.00489L21.5966 5.27727C22.178 5.74239 22.5657 6.40711 22.6842 7.14218L24.9229 21.0222C24.9673 21.2976 25.2051 21.5 25.484 21.5C25.7767 21.5 26.0215 21.2777 26.0497 20.9864L27.3779 7.26175C27.456 6.45511 27.857 5.71437 28.4899 5.20811L28.6963 5.04293C29.4385 4.44919 30.5084 4.50844 31.1805 5.18051C31.7052 5.70522 32 6.41688 32 7.15893V19.9113C32 19.9703 32.005 20.0284 32.0175 20.086C32.1291 20.6002 32.8074 23.2691 35 24C35.9074 24.3025 37.3638 26.8008 38.3729 28.7274C39.113 30.1406 39.042 31.8243 38.2673 33.2189L34.5 40C34.5 40 31 44 23 44C15 44 11.6667 41.3333 11 40Z" fill="#2F88FF" stroke="black" stroke-width="4" stroke-linecap="round" stroke-linejoin="round"/>
</svg>

<svg width="48" height="48" fill="none" xmlns="http://www.w3.org/2000/svg"><path d="m11 40-4.208-9.117a5 5 0 0 1 1.767-6.255l1.904-1.27a1 1 0 0 1 1.085-.016l.452.283-1.87-13.68a2.32 2.32 0 0 1 .442-1.707 1.547 1.547 0 0 1 2.166-.31l.133.1c.41.308.719.73.886 1.215l4.112 11.879a.562.562 0 0 0 1.092-.22l-.883-13.685a2.696 2.696 0 0 1 .785-2.08 1.797 1.797 0 0 1 2.393-.132l.34.272a3 3 0 0 1 1.088 1.865l2.239 13.88a.568.568 0 0 0 1.127-.036l1.328-13.724a3 3 0 0 1 1.112-2.054l.206-.165a1.865 1.865 0 0 1 2.484.138c.525.524.82 1.236.82 1.978V19.91a.82.82 0 0 0 .017.175c.112.514.79 3.183 2.983 3.914.907.302 2.364 2.8 3.373 4.727.74 1.414.669 3.097-.106 4.492L34.5 40S31 44 23 44s-11.333-2.667-12-4Z" fill="#2F88FF" stroke="#000" stroke-width="4" stroke-linecap="round" stroke-linejoin="round"/></svg>
